svg/color/ampl.svg

<?xml version="1.0" encoding="UTF-8"?>
<svg width="32px" height="32px" viewBox="0 0 32 32" version="1.1" xmlns="http://www.w3.org/2000/svg" xmlns:xlink="http://www.w3.org/1999/xlink">
    <title>svg/color/ampl</title>
    <g id="color/ampl" stroke="none" stroke-width="1" fill="none" fill-rule="evenodd">
        <circle id="Combined-Shape" fill="#000000" fill-rule="nonzero" cx="16" cy="16" r="16"></circle>
        <path d="M7.51103769,23.25 C7.49702502,23.014002 7.49635393,22.7774256 7.50902751,22.541355 C7.58912856,22.517107 7.6713668,22.5002362 7.75467132,22.4909625 C7.99686042,22.4496553 8.23624879,22.3939099 8.47150097,22.3240372 C8.53582668,22.3035652 8.59975036,22.2819122 8.66286996,22.2575033 C8.97294623,22.1394112 9.24582148,21.943483 9.45407621,21.6894062 C9.59822679,21.5116105 9.72489518,21.3208718 9.8323918,21.1197344 C9.98354142,20.8427509 10.1189654,20.5578097 10.2380458,20.2662108 C10.4792672,19.6775106 10.7192825,19.0877604 10.9580917,18.4969605 C11.7779765,16.4662988 12.5974593,14.4353747 13.41654,12.4041882 C14.193809,10.4729993 14.9563367,8.53669245 15.7041231,6.59526759 C15.7189984,6.55589843 15.7358839,6.51652926 15.7527694,6.47716009 C16.0285659,6.40078391 16.3011461,6.32322665 16.5825711,6.25 C16.5994566,6.28936917 16.615136,6.32440773 16.6280012,6.35983998 C16.9448053,7.22596165 17.2613414,8.09300194 17.5776095,8.96096084 C18.6570753,11.9167979 19.7405615,14.8710602 20.8513861,17.8154802 C21.1550571,18.6204484 21.4612743,19.4243668 21.7700377,20.2272354 C21.8915979,20.5552563 22.0347551,20.8752118 22.1986077,21.1850872 C22.2705721,21.3173676 22.3489691,21.4468922 22.4325925,21.5720861 C22.6899266,21.964255 23.0889364,22.2468618 23.5498497,22.3634064 C23.7978556,22.4277292 24.0497636,22.4766444 24.3040687,22.5098597 L24.4849847,22.5358433 C24.510715,22.6145816 24.4950356,22.6905641 24.4974479,22.7661529 C24.5,22.8417417 24.4974479,22.9267791 24.4974479,23.0070922 C24.5,23.0846731 24.4984686,23.1623278 24.4930255,23.239764 C24.4672952,23.2437009 24.4471934,23.2484252 24.4266896,23.2496063 C24.398145,23.2496063 24.3696005,23.2496063 24.341056,23.2496063 L18.0644747,23.2496063 C18.0576387,23.2360297 18.0527675,23.2215868 18.0500014,23.2066939 C18.0500014,22.993838 18.0500014,22.780982 18.0500014,22.568126 C18.0517866,22.5585398 18.054617,22.5491688 18.0584442,22.5401739 C18.1110673,22.5257594 18.1648771,22.5158794 18.2192584,22.510647 C18.4806353,22.4768194 18.7396351,22.4272516 18.9947853,22.3622253 C19.0973044,22.3342732 19.1982154,22.2980535 19.2979202,22.2614402 C19.3476609,22.2421923 19.3957845,22.2191564 19.441849,22.1925442 C19.6931213,22.053571 19.7940323,21.8382217 19.7727244,21.5626375 C19.7614378,21.4374372 19.7388353,21.3134637 19.7051824,21.1921736 C19.6549279,21.0028079 19.5845717,20.8193476 19.5186378,20.6354936 C18.2007648,17.0337398 16.8972311,13.4268679 15.6080366,9.81487807 C15.5943674,9.7755089 15.589945,9.73220282 15.5493394,9.69677057 C15.5364742,9.7046444 15.5187847,9.71054978 15.5091358,9.72236053 C15.498782,9.74060098 15.4908127,9.76004454 15.4854157,9.7802332 C14.8554258,11.5561763 14.1836241,13.3175529 13.5154408,15.0805042 C13.022143,16.385592 12.5280411,17.6906799 12.0681123,19.0071849 C11.8835779,19.5351254 11.7062802,20.0662155 11.5326008,20.5969118 C11.4652019,20.8000482 11.4154407,21.0083952 11.3838475,21.2197321 C11.3587623,21.3609187 11.3544301,21.5048932 11.3709824,21.6472812 C11.3922758,21.8336943 11.4924777,22.0028017 11.6471809,22.1134121 C11.7488452,22.1844819 11.8605909,22.2405878 11.9788604,22.2799437 C12.1671174,22.34498 12.3608368,22.3937221 12.5577918,22.4256096 C12.7752931,22.4649788 12.9935985,22.4945057 13.2119039,22.5287569 C13.2259751,22.531119 13.2396443,22.5338749 13.25854,22.5374181 C13.26412,22.5529641 13.2678961,22.5690756 13.269797,22.5854485 C13.269797,22.7914804 13.269797,22.9973812 13.269797,23.2031507 C13.2681551,23.2154575 13.2653283,23.2275848 13.2613542,23.2393703 C13.2418434,23.2435639 13.2221147,23.2467181 13.202255,23.2488189 C13.1737105,23.2488189 13.1451659,23.2488189 13.1166214,23.2488189 L7.51103769,23.2488189 L7.51103769,23.25 Z" id="Path" fill="#FFFFFF" fill-rule="nonzero"></path>
    </g>
</svg>

<svg width="32" height="32" viewBox="0 0 32 32" xmlns="http://www.w3.org/2000/svg"><g fill="none"><circle fill="#000" cx="16" cy="16" r="16"/><path d="M7.511 23.25a6.278 6.278 0 01-.002-.709c.08-.024.162-.04.246-.05.242-.041.481-.097.717-.167.064-.02.128-.042.19-.066.31-.119.584-.315.792-.569.144-.177.27-.368.378-.57.152-.276.287-.561.406-.853.241-.588.481-1.178.72-1.769l2.459-6.093c.777-1.931 1.54-3.867 2.287-5.809.015-.04.032-.078.049-.118.276-.076.548-.154.83-.227.016.04.032.074.045.11l.95 2.601a919.58 919.58 0 003.273 8.854c.304.805.61 1.61.919 2.412.122.328.265.648.429.958a5 5 0 00.234.387c.257.392.656.675 1.117.791.248.065.5.114.754.147l.181.026c.026.079.01.155.012.23.003.076 0 .16 0 .241.003.078.001.155-.004.233-.026.004-.046.008-.066.01h-6.363a.16.16 0 01-.014-.043v-.639a.134.134 0 01.008-.028.955.955 0 01.161-.03c.262-.033.52-.083.776-.148.102-.028.203-.064.303-.1.05-.02.098-.043.144-.07.251-.138.352-.354.33-.63a2.086 2.086 0 00-.067-.37c-.05-.19-.12-.373-.186-.557a1449.129 1449.129 0 01-3.911-10.82c-.014-.04-.018-.083-.059-.118-.013.008-.03.014-.04.025a.246.246 0 00-.024.058c-.63 1.776-1.301 3.538-1.97 5.3-.493 1.306-.987 2.61-1.447 3.927a84.001 84.001 0 00-.535 1.59 3.728 3.728 0 00-.15.623 1.49 1.49 0 00-.012.427.667.667 0 00.276.466c.102.071.214.128.332.167.188.065.382.114.579.146.217.039.436.069.654.103l.047.008a.205.205 0 01.01.048v.618a.193.193 0 01-.008.036.563.563 0 01-.059.01H7.511v.001z" fill="#FFF"/></g></svg>
